X: 10952
T: GIPSY'S HORNPIPE
R: hornpipe
B: K\"ohler's Violin Repository, v.1, 1885 p.95 #2
F: http://www.archive.org/details/klersviolinrepos01edin
Z: 2012 John Chambers <jc:trillian.mit.edu>
M: C|
L: 1/8
K: G
u(d>c) |\
(B>c)A>B (G>A)F>G | E>FG>E D2 ((3DEF) | G2D>G B2G>B | d>cB>c A2(d>c) |\
(B>c)A>B (G>A)F>G | E>FG>E D2 (g>f) | (e>c)A>G (F>D)E>F | A2G2G2 :|
|: u(GF) |\
E2e2 e>cA>G | F>Ad2 d2e>f | (g>f)e>d (c>B)A>G | (3cdc (3BcB A2(G>F) |\
E2e2 e>cA>G | F>Ad2 d2e>f | (g>f)e>d (f>e)d>^c | e2d2d2 :|

%%sep 2 1 500

